X:1
T:Away In A Manger (St. Kilda)
B:Little Children's Book: For Schools and Families (Philadelphia, 1885)
C:J.E. Clark
M:3/4
L:1/8
K:G
(B,D)|G2G2A2|B2G2(GB)|d2d2d2|d4||
w:A - way in a man-ger, no_ crib for His(?) bed,
d2|e2e2e2|e2d2(GB)|d2c2B2|A4||
w:The lit-tle Lord Jes-us laid_ down His sweet head.
(B,D)|G2G2A2|(B2G2)GB|d2d2d2|d4||
w:The_ stars in the sky_ looked_ down where He lay,
d2|e2e2e2|e2d2(GB)|d2A2B2|G4|]
w:The lit-tle Lord Jes-us a - sleep on the hay.
Contact us
suse.folkinfo.org
